src/base/static/base/assets/include/rs-plugin/demos/assets/svg/navigation/ic_unfold_less_36px.svg

<svg height="36" viewBox="0 0 36 36" width="36" xmlns="http://www.w3.org/2000/svg"><path d="m11.12 27.88 2.12 2.12 4.76-4.76 4.76 4.76 2.12-2.12-6.88-6.88zm13.76-19.76-2.12-2.12-4.76 4.76-4.76-4.76-2.12 2.12 6.88 6.88z"/></svg>

<svg xmlns="http://www.w3.org/2000/svg" width="36" height="36" viewBox="0 0 36 36"><path d="M11.12 27.88L13.24 30 18 25.24 22.76 30l2.12-2.12L18 21l-6.88 6.88zM24.88 8.12L22.76 6 18 10.76 13.24 6l-2.12 2.12L18 15l6.88-6.88z"/></svg>
